svg/color/ltck.svg

<?xml version="1.0" encoding="UTF-8" ?>
<!DOCTYPE svg PUBLIC "-//W3C//DTD SVG 1.1//EN" "http://www.w3.org/Graphics/SVG/1.1/DTD/svg11.dtd">
<svg width="250pt" height="250pt" viewBox="0 0 250 250" version="1.1" xmlns="http://www.w3.org/2000/svg">
<g id="#ffffffff">
<path fill="#ffffff" opacity="1.00" d=" M 0.00 0.00 L 109.76 0.00 C 102.92 2.04 95.96 3.61 89.08 5.48 C 69.37 10.84 51.83 22.17 37.07 36.08 C 22.45 51.20 10.62 69.45 5.26 89.95 C 3.43 96.43 2.05 103.02 0.00 109.43 L 0.00 0.00 Z" />
<path fill="#ffffff" opacity="1.00" d=" M 140.49 0.00 L 250.00 0.00 L 250.00 111.27 C 246.45 96.09 243.18 80.59 235.61 66.78 C 219.51 36.97 191.32 13.16 158.23 4.77 C 152.38 2.92 146.26 2.13 140.49 0.00 Z" />
<path fill="#ffffff" opacity="1.00" d=" M 104.96 57.69 C 109.62 57.19 114.32 57.60 119.00 57.50 C 127.20 57.62 135.42 57.14 143.60 57.88 C 143.72 62.42 143.17 66.98 141.61 71.26 C 137.74 85.33 134.61 99.60 130.59 113.62 C 136.31 111.14 142.27 109.08 148.56 108.81 C 147.65 113.29 145.94 117.57 145.61 122.16 C 145.64 123.75 143.90 124.36 142.73 124.94 C 137.22 127.30 131.65 129.58 125.86 131.18 C 123.93 143.15 119.05 154.44 117.21 166.43 C 139.82 166.71 162.45 166.25 185.07 166.66 C 182.45 175.03 180.57 183.63 177.79 191.94 C 176.02 192.75 173.98 192.44 172.09 192.55 C 137.43 192.39 102.76 192.69 68.10 192.39 C 70.13 185.75 71.38 178.90 73.44 172.26 C 75.87 164.24 77.08 155.84 80.35 148.10 C 75.42 150.20 70.24 151.60 65.35 153.76 C 65.13 147.84 67.16 142.24 68.72 136.63 C 74.10 134.32 79.95 133.11 85.14 130.30 C 85.70 126.00 86.54 121.75 88.02 117.66 C 91.82 102.23 96.01 86.89 99.86 71.46 C 101.30 66.81 101.74 61.58 104.96 57.69 Z" />
<path fill="#ffffff" opacity="1.00" d=" M 0.00 140.23 C 1.53 145.40 2.84 150.63 4.14 155.86 C 7.27 168.82 12.51 181.31 19.81 192.47 C 26.65 202.28 33.99 211.99 43.40 219.50 C 53.84 228.37 65.45 236.06 78.33 240.87 C 88.34 245.05 99.14 246.70 109.43 250.00 L 0.00 250.00 L 0.00 140.23 Z" />
<path fill="#ffffff" opacity="1.00" d=" M 244.67 160.28 C 245.95 154.54 247.69 148.89 250.00 143.47 L 250.00 250.00 L 140.25 250.00 C 146.79 248.05 153.45 246.52 160.05 244.75 C 180.54 239.38 198.79 227.55 213.92 212.94 C 227.96 198.02 239.44 180.25 244.67 160.28 Z" />
</g>
<g id="#2d60e0ff">
<path fill="#2d60e0" opacity="1.00" d=" M 109.76 0.00 L 140.49 0.00 C 146.26 2.13 152.38 2.92 158.23 4.77 C 191.32 13.16 219.51 36.97 235.61 66.78 C 243.18 80.59 246.45 96.09 250.00 111.27 L 250.00 143.47 C 247.69 148.89 245.95 154.54 244.67 160.28 C 239.44 180.25 227.96 198.02 213.92 212.94 C 198.79 227.55 180.54 239.38 160.05 244.75 C 153.45 246.52 146.79 248.05 140.25 250.00 L 109.43 250.00 C 99.14 246.70 88.34 245.05 78.33 240.87 C 65.45 236.06 53.84 228.37 43.40 219.50 C 33.99 211.99 26.65 202.28 19.81 192.47 C 12.51 181.31 7.27 168.82 4.14 155.86 C 2.84 150.63 1.53 145.40 0.00 140.23 L 0.00 109.43 C 2.05 103.02 3.43 96.43 5.26 89.95 C 10.62 69.45 22.45 51.20 37.07 36.08 C 51.83 22.17 69.37 10.84 89.08 5.48 C 95.96 3.61 102.92 2.04 109.76 0.00 M 104.96 57.69 C 101.74 61.58 101.30 66.81 99.86 71.46 C 96.01 86.89 91.82 102.23 88.02 117.66 C 86.54 121.75 85.70 126.00 85.14 130.30 C 79.95 133.11 74.10 134.32 68.72 136.63 C 67.16 142.24 65.13 147.84 65.35 153.76 C 70.24 151.60 75.42 150.20 80.35 148.10 C 77.08 155.84 75.87 164.24 73.44 172.26 C 71.38 178.90 70.13 185.75 68.10 192.39 C 102.76 192.69 137.43 192.39 172.09 192.55 C 173.98 192.44 176.02 192.75 177.79 191.94 C 180.57 183.63 182.45 175.03 185.07 166.66 C 162.45 166.25 139.82 166.71 117.21 166.43 C 119.05 154.44 123.93 143.15 125.86 131.18 C 131.65 129.58 137.22 127.30 142.73 124.94 C 143.90 124.36 145.64 123.75 145.61 122.16 C 145.94 117.57 147.65 113.29 148.56 108.81 C 142.27 109.08 136.31 111.14 130.59 113.62 C 134.61 99.60 137.74 85.33 141.61 71.26 C 143.17 66.98 143.72 62.42 143.60 57.88 C 135.42 57.14 127.20 57.62 119.00 57.50 C 114.32 57.60 109.62 57.19 104.96 57.69 Z" />
</g>
</svg>

<?xml version="1.0" encoding="utf-8"?>
<!-- Generator: Adobe Illustrator 26.0.3, SVG Export Plug-In . SVG Version: 6.00 Build 0)  -->
<svg version="1.1" id="Layer_1" xmlns="http://www.w3.org/2000/svg" xmlns:xlink="http://www.w3.org/1999/xlink" x="0px" y="0px"
	 viewBox="0 0 250 250" style="enable-background:new 0 0 250 250;" xml:space="preserve">
<style type="text/css">
	.st0{fill:#FFFFFF;}
	.st1{fill:#2D60E0;}
</style>
<g id="_x23_ffffffff">
	<path class="st0" d="M105,57.7c4.7-0.5,9.4-0.1,14-0.2c8.2,0.1,16.4-0.4,24.6,0.4c0.1,4.5-0.4,9.1-2,13.4c-3.9,14.1-7,28.3-11,42.4
		c5.7-2.5,11.7-4.5,18-4.8c-0.9,4.5-2.6,8.8-2.9,13.4c0,1.6-1.7,2.2-2.9,2.8c-5.5,2.4-11.1,4.6-16.9,6.2c-1.9,12-6.8,23.3-8.7,35.2
		c22.6,0.3,45.2-0.2,67.9,0.2c-2.6,8.4-4.5,17-7.3,25.3c-1.8,0.8-3.8,0.5-5.7,0.6c-34.7-0.2-69.3,0.1-104-0.2
		c2-6.6,3.3-13.5,5.3-20.1c2.4-8,3.6-16.4,6.9-24.2c-4.9,2.1-10.1,3.5-15,5.7c-0.2-5.9,1.8-11.5,3.4-17.1c5.4-2.3,11.2-3.5,16.4-6.3
		c0.6-4.3,1.4-8.6,2.9-12.6c3.8-15.4,8-30.8,11.8-46.2C101.3,66.8,101.7,61.6,105,57.7z"/>
</g>
<g id="_x23_2d60e0ff">
	<path class="st1" d="M109.8,0h30.7c5.8,2.1,11.9,2.9,17.7,4.8c33.1,8.4,61.3,32.2,77.4,62c7.6,13.8,10.8,29.3,14.4,44.5v32.2
		c-2.3,5.4-4.1,11.1-5.3,16.8c-5.2,20-16.7,37.7-30.8,52.7c-15.1,14.6-33.4,26.4-53.9,31.8c-6.6,1.8-13.3,3.3-19.8,5.2h-30.8
		c-10.3-3.3-21.1-4.9-31.1-9.1c-12.9-4.8-24.5-12.5-34.9-21.4c-9.4-7.5-16.8-17.2-23.6-27c-7.3-11.2-12.5-23.6-15.7-36.6
		c-1.3-5.2-2.6-10.5-4.1-15.6v-30.8c2-6.4,3.4-13,5.3-19.5c5.4-20.5,17.2-38.7,31.8-53.9c14.8-13.9,32.3-25.2,52-30.6
		C96,3.6,102.9,2,109.8,0 M105,57.7c-3.2,3.9-3.7,9.1-5.1,13.8c-3.8,15.4-8,30.8-11.8,46.2c-1.5,4.1-2.3,8.3-2.9,12.6
		c-5.2,2.8-11,4-16.4,6.3c-1.6,5.6-3.6,11.2-3.4,17.1c4.9-2.2,10.1-3.6,15-5.7c-3.3,7.7-4.5,16.1-6.9,24.2
		c-2.1,6.6-3.3,13.5-5.3,20.1c34.7,0.3,69.3,0,104,0.2c1.9-0.1,3.9,0.2,5.7-0.6c2.8-8.3,4.7-16.9,7.3-25.3
		c-22.6-0.4-45.2,0.1-67.9-0.2c1.8-12,6.7-23.3,8.7-35.2c5.8-1.6,11.4-3.9,16.9-6.2c1.2-0.6,2.9-1.2,2.9-2.8c0.3-4.6,2-8.9,2.9-13.4
		c-6.3,0.3-12.2,2.3-18,4.8c4-14,7.2-28.3,11-42.4c1.6-4.3,2.1-8.8,2-13.4c-8.2-0.7-16.4-0.3-24.6-0.4
		C114.3,57.6,109.6,57.2,105,57.7z"/>
</g>
</svg>
